X: 1
T: MacArthur Road
M: 4/4
L: 1/8
R: reel
K: Emaj
|:BG (3GGG Bcef|gfeg fece|f3g fece|acgc fece|
BG (3GGG Bcef|gfeg fece|f3g fecB|1 cefg e2z2:|2 cefg efga||
be(3eee bec'e|bege fece|f3g fece|aege fece|
be(3eee bec'e|bege fece|f3g fecB|cefg efga|
be(3eee bec'e|bege fece|f3g fece|aege fece|
BG(3GGG Bcef|gfeg fece|f3g fecB|cefg e2z2|
